console-client/ionicons/svg/qr-code.svg

<svg xmlns="http://www.w3.org/2000/svg" class="ionicon" viewBox="0 0 512 512"><title>Qr Code</title><rect x="336" y="336" width="80" height="80" rx="8" ry="8"/><rect x="272" y="272" width="64" height="64" rx="8" ry="8"/><rect x="416" y="416" width="64" height="64" rx="8" ry="8"/><rect x="432" y="272" width="48" height="48" rx="8" ry="8"/><rect x="272" y="432" width="48" height="48" rx="8" ry="8"/><path d="M448 32H304a32 32 0 00-32 32v144a32 32 0 0032 32h144a32 32 0 0032-32V64a32 32 0 00-32-32zm-32 136a8 8 0 01-8 8h-64a8 8 0 01-8-8v-64a8 8 0 018-8h64a8 8 0 018 8zM208 32H64a32 32 0 00-32 32v144a32 32 0 0032 32h144a32 32 0 0032-32V64a32 32 0 00-32-32zm-32 136a8 8 0 01-8 8h-64a8 8 0 01-8-8v-64a8 8 0 018-8h64a8 8 0 018 8zM208 272H64a32 32 0 00-32 32v144a32 32 0 0032 32h144a32 32 0 0032-32V304a32 32 0 00-32-32zm-32 136a8 8 0 01-8 8h-64a8 8 0 01-8-8v-64a8 8 0 018-8h64a8 8 0 018 8z"/></svg>

<svg xmlns="http://www.w3.org/2000/svg" width="512" height="512" viewBox="0 0 512 512"><title>ionicons-v5-k</title><rect x="336" y="336" width="80" height="80" rx="8" ry="8"/><rect x="272" y="272" width="64" height="64" rx="8" ry="8"/><rect x="416" y="416" width="64" height="64" rx="8" ry="8"/><rect x="432" y="272" width="48" height="48" rx="8" ry="8"/><rect x="272" y="432" width="48" height="48" rx="8" ry="8"/><path d="M448,32H304a32,32,0,0,0-32,32V208a32,32,0,0,0,32,32H448a32,32,0,0,0,32-32V64A32,32,0,0,0,448,32ZM416,168a8,8,0,0,1-8,8H344a8,8,0,0,1-8-8V104a8,8,0,0,1,8-8h64a8,8,0,0,1,8,8Z"/><path d="M208,32H64A32,32,0,0,0,32,64V208a32,32,0,0,0,32,32H208a32,32,0,0,0,32-32V64A32,32,0,0,0,208,32ZM176,168a8,8,0,0,1-8,8H104a8,8,0,0,1-8-8V104a8,8,0,0,1,8-8h64a8,8,0,0,1,8,8Z"/><path d="M208,272H64a32,32,0,0,0-32,32V448a32,32,0,0,0,32,32H208a32,32,0,0,0,32-32V304A32,32,0,0,0,208,272ZM176,408a8,8,0,0,1-8,8H104a8,8,0,0,1-8-8V344a8,8,0,0,1,8-8h64a8,8,0,0,1,8,8Z"/></svg>
